icons/consul.svg

<?xml version="1.0" encoding="UTF-8" standalone="no"?>
<svg width="256px" height="255px" viewBox="0 0 256 255" version="1.1" xmlns="http://www.w3.org/2000/svg" xmlns:xlink="http://www.w3.org/1999/xlink" preserveAspectRatio="xMidYMid">
    <g>
        <path d="M127.16,254.32 C93.194,254.32 61.262,241.093 37.244,217.076 C13.227,193.058 0,161.126 0,127.16 C0,93.195 13.227,61.262 37.244,37.245 C61.262,13.227 93.194,0 127.16,0 C155.641,0 181.96,8.472 204.416,25.885 C207.975,28.645 208.623,33.768 205.863,37.327 C203.103,40.887 197.98,41.535 194.42,38.774 C174.851,23.6 151.989,16.311 127.16,16.311 C97.551,16.311 69.715,27.842 48.778,48.778 C27.841,69.715 16.311,97.552 16.311,127.16 C16.311,156.769 27.841,184.606 48.778,205.542 C69.715,226.479 97.551,238.009 127.16,238.009 C151.827,238.009 175.173,230.082 194.673,215.086 C198.244,212.34 203.364,213.008 206.109,216.578 C208.855,220.149 208.187,225.269 204.616,228.015 C182.24,245.224 155.456,254.32 127.16,254.32 Z M153.4704,126.7897 C153.4704,141.5307 141.5204,153.4797 126.7804,153.4797 C112.0394,153.4797 100.0894,141.5307 100.0894,126.7897 C100.0894,112.0487 112.0394,100.0997 126.7804,100.0997 C141.5204,100.0997 153.4704,112.0487 153.4704,126.7897 Z M188.3986,126.7485 C188.3986,132.3675 183.8436,136.9225 178.2246,136.9225 C172.6066,136.9225 168.0516,132.3675 168.0516,126.7485 C168.0516,121.1295 172.6066,116.5745 178.2246,116.5745 C183.8436,116.5745 188.3986,121.1295 188.3986,126.7485 Z M221.5249,107.472 C221.5249,113.091 216.9699,117.646 211.3509,117.646 C205.7329,117.646 201.1779,113.091 201.1779,107.472 C201.1779,101.853 205.7329,97.298 211.3509,97.298 C216.9699,97.298 221.5249,101.853 221.5249,107.472 Z M221.5249,147.8372 C221.5249,153.4562 216.9699,158.0112 211.3509,158.0112 C205.7329,158.0112 201.1779,153.4562 201.1779,147.8372 C201.1779,142.2182 205.7329,137.6632 211.3509,137.6632 C216.9699,137.6632 221.5249,142.2182 221.5249,147.8372 Z M256.0001,107.472 C256.0001,113.091 251.4451,117.646 245.8261,117.646 C240.2081,117.646 235.6531,113.091 235.6531,107.472 C235.6531,101.853 240.2081,97.298 245.8261,97.298 C251.4451,97.298 256.0001,101.853 256.0001,107.472 Z M239.195,68.672 C239.195,74.291 234.64,78.846 229.021,78.846 C223.403,78.846 218.848,74.291 218.848,68.672 C218.848,63.053 223.403,58.498 229.021,58.498 C234.64,58.498 239.195,63.053 239.195,68.672 Z M239.195,185.5664 C239.195,191.1854 234.64,195.7404 229.021,195.7404 C223.403,195.7404 218.848,191.1854 218.848,185.5664 C218.848,179.9474 223.403,175.3924 229.021,175.3924 C234.64,175.3924 239.195,179.9474 239.195,185.5664 Z M256.0001,147.8372 C256.0001,153.4562 251.4451,158.0112 245.8261,158.0112 C240.2081,158.0112 235.6531,153.4562 235.6531,147.8372 C235.6531,142.2182 240.2081,137.6632 245.8261,137.6632 C251.4451,137.6632 256.0001,142.2182 256.0001,147.8372 Z" fill="#694A9C"></path>
    </g>
</svg>

<svg xmlns="http://www.w3.org/2000/svg" viewBox="0 0 256 254.32">
  <path fill="#694a9c" d="M127.16 254.32c-33.966 0-65.898-13.227-89.916-37.244C13.227 193.058 0 161.126 0 127.16c0-33.965 13.227-65.898 37.244-89.915C61.262 13.227 93.194 0 127.16 0c28.481 0 54.8 8.472 77.256 25.885a8.155 8.155 0 1 1-9.996 12.889c-19.569-15.174-42.431-22.463-67.26-22.463-29.609 0-57.445 11.531-78.382 32.467-20.937 20.937-32.467 48.774-32.467 78.382 0 29.609 11.53 57.446 32.467 78.382 20.937 20.937 48.773 32.467 78.382 32.467 24.667 0 48.013-7.927 67.513-22.923a8.155 8.155 0 1 1 9.943 12.929c-22.376 17.209-49.16 26.305-77.456 26.305zm26.31-127.53c0 14.74-11.95 26.69-26.69 26.69-14.74 0-26.69-11.95-26.69-26.69 0-14.741 11.95-26.69 26.69-26.69 14.74 0 26.69 11.949 26.69 26.69zm34.929-.042c0 5.62-4.555 10.174-10.174 10.174-5.618 0-10.173-4.555-10.173-10.174s4.555-10.174 10.173-10.174c5.619 0 10.174 4.555 10.174 10.174zm33.126-19.276c0 5.619-4.555 10.174-10.174 10.174-5.618 0-10.173-4.555-10.173-10.174s4.555-10.174 10.173-10.174c5.619 0 10.174 4.555 10.174 10.174zm0 40.365c0 5.62-4.555 10.174-10.174 10.174-5.618 0-10.173-4.555-10.173-10.174s4.555-10.174 10.173-10.174c5.619 0 10.174 4.555 10.174 10.174zM256 107.472c0 5.619-4.555 10.174-10.174 10.174-5.618 0-10.173-4.555-10.173-10.174s4.555-10.174 10.173-10.174c5.62 0 10.174 4.555 10.174 10.174zm-16.805-38.8c0 5.619-4.555 10.174-10.174 10.174-5.618 0-10.173-4.555-10.173-10.174s4.555-10.174 10.173-10.174c5.619 0 10.174 4.555 10.174 10.174zm0 116.894c0 5.62-4.555 10.174-10.174 10.174-5.618 0-10.173-4.555-10.173-10.174s4.555-10.174 10.173-10.174c5.619 0 10.174 4.555 10.174 10.174zM256 147.837c0 5.62-4.555 10.174-10.174 10.174-5.618 0-10.173-4.555-10.173-10.174s4.555-10.174 10.173-10.174c5.62 0 10.174 4.555 10.174 10.174z"/>
</svg>
